X: 65
T:Oh Syntax or The Race horse. GS.065
T:Race Horse,The. GS.065
T:Rose,The. GS.065
M:6/8
L:1/8
Q:110
C:would suit flute
S:George Spencer m/s, Leeds,1831
R:March
O:England
A:Leeds
N:Of Syntax  Dr. Syntax, and by the side in different writing, 'the
N:Rose'
H:1831
Z:vmp.Cherri Graebe
K:BB major
F | B3 (dcB) | fdB BAB | cAF FGB | BDE FGA | B3 dcB | fec BAB |! cAF FGA
 | Bdf b2 "or d in ms" c :||:
BDF BDF | dDF BDF | dDF BDF | cEF AGF |! BDF BDF | dDF BDF | cFA AEF | B
DF B2 ||
f | fed fed | bag fed |! bag fed | dcc edc | fed fed | bag fed | fgf edc
 | Bgf ed"D Capo"c ||
